src/activities/smallnumbers/resource/dice4.svg

<?xml version="1.0" encoding="UTF-8" standalone="no"?>
<!-- Created with Inkscape (http://www.inkscape.org/) -->

<svg
   xmlns:dc="http://purl.org/dc/elements/1.1/"
   xmlns:cc="http://creativecommons.org/ns#"
   xmlns:rdf="http://www.w3.org/1999/02/22-rdf-syntax-ns#"
   xmlns:svg="http://www.w3.org/2000/svg"
   xmlns="http://www.w3.org/2000/svg"
   xmlns:sodipodi="http://sodipodi.sourceforge.net/DTD/sodipodi-0.dtd"
   xmlns:inkscape="http://www.inkscape.org/namespaces/inkscape"
   width="97.366165"
   height="98.64563"
   id="svg5070"
   sodipodi:version="0.32"
   inkscape:version="0.91 r13725"
   sodipodi:docname="dice4.svg"
   inkscape:export-filename="/home/franck/Gcompris/gartoon/level4.png"
   inkscape:export-xdpi="8.5762272"
   inkscape:export-ydpi="8.5762272"
   inkscape:output_extension="org.inkscape.output.svg.inkscape"
   version="1.0">
  <defs
     id="defs3" />
  <sodipodi:namedview
     inkscape:document-units="mm"
     id="base"
     pagecolor="#ffffff"
     bordercolor="#666666"
     borderopacity="1.0"
     inkscape:pageopacity="0.0"
     inkscape:pageshadow="2"
     inkscape:zoom="3.1015625"
     inkscape:cx="38.206549"
     inkscape:cy="65.051028"
     inkscape:current-layer="g16505"
     inkscape:window-width="936"
     inkscape:window-height="1053"
     inkscape:window-x="940"
     inkscape:window-y="0"
     showgrid="false"
     units="mm"
     fit-margin-top="0"
     fit-margin-left="0"
     fit-margin-right="0"
     fit-margin-bottom="0"
     inkscape:window-maximized="0" />
  <metadata
     id="metadata4">
    <rdf:RDF>
      <cc:Work
         rdf:about="">
        <dc:format>image/svg+xml</dc:format>
        <dc:type
           rdf:resource="http://purl.org/dc/dcmitype/StillImage" />
        <dc:title></dc:title>
        <dc:date>2015</dc:date>
        <dc:creator>
          <cc:Agent>
            <dc:title>Timothée Giet</dc:title>
          </cc:Agent>
        </dc:creator>
        <cc:license
           rdf:resource="http://creativecommons.org/licenses/by-sa/4.0/" />
      </cc:Work>
      <cc:License
         rdf:about="http://creativecommons.org/licenses/by-sa/4.0/">
        <cc:permits
           rdf:resource="http://creativecommons.org/ns#Reproduction" />
        <cc:permits
           rdf:resource="http://creativecommons.org/ns#Distribution" />
        <cc:requires
           rdf:resource="http://creativecommons.org/ns#Notice" />
        <cc:requires
           rdf:resource="http://creativecommons.org/ns#Attribution" />
        <cc:permits
           rdf:resource="http://creativecommons.org/ns#DerivativeWorks" />
        <cc:requires
           rdf:resource="http://creativecommons.org/ns#ShareAlike" />
      </cc:License>
    </rdf:RDF>
  </metadata>
  <g
     inkscape:label="Layer 1"
     inkscape:groupmode="layer"
     id="layer1"
     transform="translate(-9.6741017,-12.649184)">
    <g
       id="g16505"
       transform="matrix(0.143061,0,0,0.147722,9.0037973,-23.759438)">
      <path
         style="fill:#991919;fill-opacity:1;fill-rule:evenodd;stroke:none;stroke-width:0.14504871pt;stroke-linecap:butt;stroke-linejoin:miter;stroke-opacity:1"
         d="m 48.44863,426.27184 c 0,0 81.76038,-99.79179 158.39389,-144.96305 47.56054,-28.03434 111.49816,-39.75329 167.22368,-31.75381 100.51751,14.42941 242.38885,69.24018 242.38885,69.24018 39.87194,11.04479 73.04988,34.12567 67.57704,90.61754 -9.37691,96.78813 -28.77541,168.66473 -56.61431,257.89344 -11.85895,38.01007 -27.63801,78.67342 -39.11423,107.00491 -13.39642,33.07192 -30.89108,62.43568 -41.8738,85.89603 -16.86767,36.03113 -64.41649,53.88419 -106.33458,53.41676 C 378.18982,912.93355 258.60753,881.60112 164.11461,836.01509 121.5301,815.4711 91.743721,790.05238 79.275732,756.42572 50.951325,680.03373 5.3819587,615.86737 5.3191743,532.24994 5.2848742,486.56064 23.292941,459.40625 48.44863,426.27184 Z"
         id="rect5098"
         sodipodi:nodetypes="csscssssssssc"
         inkscape:connector-curvature="0" />
      <path
         style="fill:#e82727;fill-opacity:1;fill-rule:evenodd;stroke:none"
         d="m 356.29158,277.35485 c 101.90407,10.9575 157.52029,38.13862 242.58025,65.99658 44.23667,14.48794 81.70985,44.97102 37.71204,118.00249 L 514.67272,663.71273 C 488.1,708.1903 413.06534,716.98734 365.69215,704.22237 L 105.06388,608.6294 C 57.69068,595.86444 10.056419,532.77277 38.005679,488.44523 77.456319,425.87651 142.58282,362.62784 204.8917,308.71458 242.77868,275.9326 307.95995,272.15787 356.29158,277.35485 Z"
         id="rect5076"
         sodipodi:nodetypes="csscccsss"
         inkscape:connector-curvature="0" />
      <path
         style="fill:#c21919;fill-opacity:1;fill-rule:evenodd;stroke:none"
         d="M 378.09776,895.65901 C 292.09005,879.86915 234.87297,848.76647 167.60823,819.45516 130.50025,803.28492 99.846202,765.11844 91.392675,735.08042 L 59.229555,643.34967 C 43.7646,599.24286 70.068079,600.4833 116.7575,619.06935 l 255.49525,92.18961 c 39.81768,11.8864 73.95518,39.68737 74.00068,86.75654 0.021,21.57152 -0.33713,37.35987 -3.67005,66.58199 -2.20656,19.34614 -22.12199,38.83904 -64.48562,31.06152 z"
         id="path6555"
         sodipodi:nodetypes="cscsccsss"
         inkscape:connector-curvature="0" />
      <path
         style="fill:#c21919;fill-opacity:1;fill-rule:evenodd;stroke:none"
         d="m 571.45742,763.76729 c -11.75436,23.69533 -24.29658,59.80361 -40.42724,88.59289 -22.68051,40.47921 -68.43122,47.5156 -66.27858,19.38689 l 5.14728,-67.25897 c 3.59175,-46.93322 29.52843,-99.21583 44.45972,-123.12372 40.59669,-65.00305 90.44209,-137.3229 127.10438,-194.68062 14.43154,-22.57783 17.50799,3.63408 12.39758,21.3355 l -44.76555,155.05856 c -8.46434,29.31873 -27.60489,80.4648 -37.63759,100.68947 z"
         id="path7283"
         sodipodi:nodetypes="sssssssss"
         inkscape:connector-curvature="0" />
      <path
         style="fill:#ecc9c0;fill-opacity:1;fill-rule:evenodd;stroke:none"
         d="M 17.460938 58.478516 C 15.801116 58.435235 14.442755 59.284848 14.519531 60.917969 A 4.7374478 2.7915211 33.312581 0 0 14.513672 60.976562 A 4.7374478 2.7915211 33.312581 0 0 18.332031 65.533203 A 4.7374478 2.7915211 33.312581 0 0 22.925781 64.740234 L 22.931641 64.345703 C 22.943098 64.221026 22.944382 64.091492 22.9375 63.957031 L 22.941406 63.623047 A 4.7374478 2.7915211 33.312581 0 0 22.826172 63.228516 C 22.440418 61.645968 21.157735 59.788354 19.763672 59.080078 C 19.004808 58.694526 18.20267 58.497857 17.460938 58.478516 z M 78.724609 65.304688 C 78.649097 65.311032 78.568813 65.332361 78.484375 65.365234 C 78.480985 65.366554 78.478014 65.365823 78.474609 65.367188 A 1.3153589 3.6045662 18.429962 0 0 78.458984 65.369141 A 1.3153589 3.6045662 18.429962 0 0 76.25 68.910156 A 1.3153589 3.6045662 18.429962 0 0 76.605469 72.226562 L 76.798828 72.169922 C 76.855423 72.15991 76.91374 72.142668 76.974609 72.119141 L 77.142578 72.070312 A 1.3153589 3.6045662 18.429962 0 0 77.337891 71.919922 C 78.099075 71.390504 78.994924 70.155322 79.341797 69.009766 C 79.909951 67.133423 79.667143 65.225495 78.724609 65.304688 z M 51.03125 71.150391 C 49.371394 71.107109 48.013007 71.958611 48.089844 73.591797 A 4.7374478 2.7915211 33.312581 0 0 48.083984 73.650391 A 4.7374478 2.7915211 33.312581 0 0 51.902344 78.205078 A 4.7374478 2.7915211 33.312581 0 0 56.496094 77.414062 L 56.501953 77.013672 C 56.512972 76.890652 56.514594 76.763365 56.507812 76.630859 L 56.511719 76.296875 A 4.7374478 2.7915211 33.312581 0 0 56.396484 75.902344 C 56.01073 74.319796 54.728048 72.462182 53.333984 71.753906 C 52.575121 71.368354 51.772982 71.169732 51.03125 71.150391 z M 35.728516 73.519531 C 34.06866 73.476249 32.710273 74.327752 32.787109 75.960938 A 4.7374478 2.7915211 33.312581 0 0 32.78125 76.019531 A 4.7374478 2.7915211 33.312581 0 0 36.597656 80.574219 A 4.7374478 2.7915211 33.312581 0 0 41.193359 79.783203 L 41.199219 79.382812 C 41.210238 79.259792 41.21186 79.132505 41.205078 79 L 41.208984 78.666016 A 4.7374478 2.7915211 33.312581 0 0 41.09375 78.271484 C 40.707996 76.688937 39.425313 74.831323 38.03125 74.123047 C 37.272387 73.737495 36.470248 73.538872 35.728516 73.519531 z M 22.976562 76.705078 C 21.316707 76.661796 19.95832 77.513298 20.035156 79.146484 A 4.7374478 2.7915211 33.312581 0 0 20.029297 79.205078 A 4.7374478 2.7915211 33.312581 0 0 23.845703 83.759766 A 4.7374478 2.7915211 33.312581 0 0 28.441406 82.96875 L 28.447266 82.568359 C 28.458285 82.445339 28.459907 82.318052 28.453125 82.185547 L 28.457031 81.851562 A 4.7374478 2.7915211 33.312581 0 0 28.341797 81.457031 C 27.956043 79.874484 26.671407 78.01687 25.277344 77.308594 C 24.51848 76.923042 23.718295 76.724419 22.976562 76.705078 z M 52.705078 87.425781 C 51.045256 87.3825 49.684943 88.232114 49.761719 89.865234 A 4.7374478 2.7915211 33.312581 0 0 49.755859 89.923828 A 4.7374478 2.7915211 33.312581 0 0 53.574219 94.478516 A 4.7374478 2.7915211 33.312581 0 0 58.169922 93.6875 L 58.175781 93.277344 C 58.18536 93.164745 58.184964 93.048267 58.179688 92.927734 L 58.185547 92.570312 A 4.7374478 2.7915211 33.312581 0 0 58.070312 92.177734 C 57.685176 90.594747 56.400522 88.735924 55.005859 88.027344 C 54.246996 87.641792 53.44681 87.445122 52.705078 87.425781 z "
         transform="matrix(6.9900252,0,0,6.7694724,4.6854447,246.46716)"
         id="path1340" />
      <path
         style="fill:#f2dbd4;fill-opacity:1;fill-rule:evenodd;stroke:none"
         d="M 44.533203 8.71875 C 43.898194 8.7392624 43.300505 8.8307205 42.78125 9.0058594 C 39.400304 10.146215 37.632876 13.464677 40.087891 15.505859 A 3.6704369 6.2181143 80.133113 0 0 40.167969 15.589844 A 3.6704369 6.2181143 80.133113 0 0 48.099609 16.181641 A 3.6704369 6.2181143 80.133113 0 0 51.269531 11.205078 L 50.867188 10.835938 C 50.754912 10.717836 50.630029 10.604812 50.494141 10.494141 L 50.148438 10.177734 A 3.6704369 6.2181143 80.133113 0 0 49.650391 9.9296875 C 48.231783 9.1422784 46.254065 8.663162 44.533203 8.71875 z M 78.328125 19.910156 C 77.693116 19.930669 77.093474 20.02408 76.574219 20.199219 C 73.182591 21.343178 71.412734 24.679264 73.902344 26.71875 A 3.6704369 6.2181143 80.133113 0 0 73.960938 26.78125 A 3.6704369 6.2181143 80.133113 0 0 81.894531 27.373047 A 3.6704369 6.2181143 80.133113 0 0 85.064453 22.398438 L 84.658203 22.027344 C 84.547265 21.910812 84.424961 21.798748 84.291016 21.689453 L 83.941406 21.371094 A 3.6704369 6.2181143 80.133113 0 0 83.4375 21.121094 C 82.019207 20.335295 80.047029 19.854631 78.328125 19.910156 z M 17.822266 35.53125 C 17.187256 35.551762 16.589568 35.645174 16.070312 35.820312 C 12.663364 36.969439 10.886164 40.3323 13.425781 42.369141 A 3.6704369 6.2181143 80.133113 0 0 13.457031 42.402344 A 3.6704369 6.2181143 80.133113 0 0 21.388672 42.994141 A 3.6704369 6.2181143 80.133113 0 0 24.558594 38.019531 L 24.152344 37.648438 C 24.041405 37.531906 23.919102 37.419841 23.785156 37.310547 L 23.435547 36.992188 A 3.6704369 6.2181143 80.133113 0 0 22.9375 36.744141 C 21.518916 35.956857 19.542975 35.475667 17.822266 35.53125 z M 57.287109 51.513672 C 56.6521 51.534184 56.052459 51.625642 55.533203 51.800781 C 52.151286 52.941465 50.383645 56.261701 52.841797 58.302734 A 3.6704369 6.2181143 80.133113 0 0 52.919922 58.384766 A 3.6704369 6.2181143 80.133113 0 0 60.853516 58.976562 A 3.6704369 6.2181143 80.133113 0 0 64.023438 54 L 63.609375 53.621094 C 63.503514 53.510717 63.38633 53.404644 63.259766 53.300781 L 62.900391 52.972656 A 3.6704369 6.2181143 80.133113 0 0 62.402344 52.726562 C 60.983681 51.938871 59.008314 51.458073 57.287109 51.513672 z "
         transform="matrix(6.9900252,0,0,6.7694724,4.6854447,246.46716)"
         id="path8739" />
    </g>
  </g>
</svg>

<!--Created with Inkscape (http://www.inkscape.org/)--><svg xmlns:dc="http://purl.org/dc/elements/1.1/" xmlns:cc="http://creativecommons.org/ns#" xmlns:rdf="http://www.w3.org/1999/02/22-rdf-syntax-ns#" xmlns="http://www.w3.org/2000/svg" xmlns:sodipodi="http://sodipodi.sourceforge.net/DTD/sodipodi-0.dtd" xmlns:inkscape="http://www.inkscape.org/namespaces/inkscape" width="97.366165" height="98.64563" sodipodi:version="0.32" inkscape:version="0.91 r13725" sodipodi:docname="dice4.svg" inkscape:export-filename="/home/franck/Gcompris/gartoon/level4.png" inkscape:export-xdpi="8.5762272" inkscape:export-ydpi="8.5762272" inkscape:output_extension="org.inkscape.output.svg.inkscape" version="1.0"><sodipodi:namedview inkscape:document-units="mm" pagecolor="#ffffff" bordercolor="#666666" borderopacity="1.0" inkscape:pageopacity="0.0" inkscape:pageshadow="2" inkscape:zoom="3.1015625" inkscape:cx="38.206549" inkscape:cy="65.051028" inkscape:current-layer="g16505" inkscape:window-width="936" inkscape:window-height="1053" inkscape:window-x="940" inkscape:window-y="0" showgrid="false" units="mm" fit-margin-top="0" fit-margin-left="0" fit-margin-right="0" fit-margin-bottom="0" inkscape:window-maximized="0"/><metadata><rdf:RDF><cc:Work><dc:format>image/svg+xml</dc:format><dc:type rdf:resource="http://purl.org/dc/dcmitype/StillImage"/><dc:title/><dc:date>2015</dc:date><dc:creator><cc:Agent><dc:title>Timothée Giet</dc:title></cc:Agent></dc:creator><cc:license rdf:resource="http://creativecommons.org/licenses/by-sa/4.0/"/></cc:Work><cc:License rdf:about="http://creativecommons.org/licenses/by-sa/4.0/"><cc:permits rdf:resource="http://creativecommons.org/ns#Reproduction"/><cc:permits rdf:resource="http://creativecommons.org/ns#Distribution"/><cc:requires rdf:resource="http://creativecommons.org/ns#Notice"/><cc:requires rdf:resource="http://creativecommons.org/ns#Attribution"/><cc:permits rdf:resource="http://creativecommons.org/ns#DerivativeWorks"/><cc:requires rdf:resource="http://creativecommons.org/ns#ShareAlike"/></cc:License></rdf:RDF></metadata><g inkscape:label="Layer 1" inkscape:groupmode="layer"><path style="fill:#991919;fill-opacity:1;fill-rule:evenodd;stroke:none;stroke-width:.14504871pt;stroke-linecap:butt;stroke-linejoin:miter;stroke-opacity:1" d="M48.449 426.272s81.76-99.792 158.394-144.963c47.56-28.035 111.498-39.754 167.223-31.754 100.518 14.43 242.39 69.24 242.39 69.24 39.871 11.045 73.049 34.126 67.576 90.618-9.377 96.788-28.775 168.664-56.614 257.893-11.86 38.01-27.638 78.674-39.114 107.005-13.397 33.072-30.892 62.436-41.874 85.896-16.868 36.031-64.417 53.884-106.335 53.417-61.905-.69-181.487-32.023-275.98-77.609-42.585-20.544-72.371-45.963-84.84-79.59C50.952 680.035 5.383 615.868 5.32 532.25c-.034-45.69 17.974-72.844 43.13-105.978z" sodipodi:nodetypes="csscssssssssc" inkscape:connector-curvature="0" transform="matrix(.14306 0 0 .14772 -.67 -36.409)"/><path style="fill:#e82727;fill-opacity:1;fill-rule:evenodd;stroke:none" d="M356.292 277.355c101.904 10.957 157.52 38.138 242.58 65.996 44.237 14.488 81.71 44.971 37.712 118.003L514.673 663.713c-26.573 44.477-101.608 53.274-148.98 40.51l-260.63-95.594c-47.372-12.765-95.007-75.856-67.057-120.184 39.45-62.568 104.577-125.817 166.886-179.73 37.887-32.782 103.068-36.557 151.4-31.36z" sodipodi:nodetypes="csscccsss" inkscape:connector-curvature="0" transform="matrix(.14306 0 0 .14772 -.67 -36.409)"/><path style="fill:#c21919;fill-opacity:1;fill-rule:evenodd;stroke:none" d="M378.098 895.659c-86.008-15.79-143.225-46.893-210.49-76.204-37.108-16.17-67.762-54.337-76.215-84.375L59.23 643.35c-15.465-44.107 10.838-42.867 57.527-24.28l255.496 92.189c39.817 11.886 73.955 39.687 74 86.756.021 21.572-.337 37.36-3.67 66.582-2.206 19.347-22.122 38.84-64.485 31.062z" sodipodi:nodetypes="cscsccsss" inkscape:connector-curvature="0" transform="matrix(.14306 0 0 .14772 -.67 -36.409)"/><path style="fill:#c21919;fill-opacity:1;fill-rule:evenodd;stroke:none" d="M571.457 763.767c-11.754 23.696-24.296 59.804-40.427 88.593-22.68 40.48-68.431 47.516-66.278 19.387l5.147-67.259c3.592-46.933 29.528-99.216 44.46-123.124 40.596-65.003 90.442-137.323 127.104-194.68 14.432-22.578 17.508 3.634 12.398 21.335l-44.766 155.059c-8.464 29.319-27.605 80.465-37.638 100.69z" sodipodi:nodetypes="sssssssss" inkscape:connector-curvature="0" transform="matrix(.14306 0 0 .14772 -.67 -36.409)"/><path style="fill:#ecc9c0;fill-opacity:1;fill-rule:evenodd;stroke:none" d="M17.46 58.479c-1.659-.044-3.017.806-2.94 2.439a4.737 2.792 33.313 0 0-.006.059 4.737 2.792 33.313 0 0 3.818 4.556 4.737 2.792 33.313 0 0 4.594-.793l.006-.394c.011-.125.012-.255.006-.389l.003-.334a4.737 2.792 33.313 0 0-.115-.394c-.386-1.583-1.668-3.44-3.062-4.149a5.454 5.454 0 0 0-2.303-.601zm61.265 6.826a.872.872 0 0 0-.24.06c-.004.002-.007 0-.01.002a1.315 3.605 18.43 0 0-.016.002 1.315 3.605 18.43 0 0-2.209 3.541 1.315 3.605 18.43 0 0 .355 3.317l.194-.057a.947.947 0 0 0 .176-.05l.168-.05a1.315 3.605 18.43 0 0 .195-.15c.761-.53 1.657-1.765 2.004-2.91.568-1.877.325-3.785-.617-3.705zM51.03 71.15c-1.66-.043-3.018.809-2.941 2.442a4.737 2.792 33.313 0 0-.006.058 4.737 2.792 33.313 0 0 3.818 4.555 4.737 2.792 33.313 0 0 4.594-.79l.006-.401c.011-.123.013-.25.006-.383l.004-.334a4.737 2.792 33.313 0 0-.116-.395c-.385-1.582-1.668-3.44-3.062-4.148a5.458 5.458 0 0 0-2.303-.604zM35.73 73.52c-1.66-.044-3.019.808-2.942 2.44a4.737 2.792 33.313 0 0-.006.06 4.737 2.792 33.313 0 0 3.817 4.554 4.737 2.792 33.313 0 0 4.595-.79l.006-.401c.011-.123.013-.25.006-.383l.004-.334a4.737 2.792 33.313 0 0-.115-.395c-.386-1.582-1.669-3.44-3.063-4.148a5.458 5.458 0 0 0-2.302-.603zm-12.752 3.185c-1.66-.043-3.019.808-2.942 2.441a4.737 2.792 33.313 0 0-.006.06 4.737 2.792 33.313 0 0 3.817 4.554 4.737 2.792 33.313 0 0 4.595-.791l.006-.4c.011-.124.013-.25.006-.383l.004-.334a4.737 2.792 33.313 0 0-.115-.395c-.386-1.583-1.67-3.44-3.065-4.148a5.45 5.45 0 0 0-2.3-.604zm29.728 10.72c-1.66-.043-3.02.807-2.943 2.44a4.737 2.792 33.313 0 0-.006.059 4.737 2.792 33.313 0 0 3.818 4.555 4.737 2.792 33.313 0 0 4.596-.791l.006-.41c.01-.113.009-.23.004-.35l.006-.358a4.737 2.792 33.313 0 0-.116-.392c-.385-1.583-1.67-3.442-3.064-4.15a5.446 5.446 0 0 0-2.3-.602z"/><path style="fill:#f2dbd4;fill-opacity:1;fill-rule:evenodd;stroke:none" d="M44.533 8.719c-.635.02-1.232.112-1.752.287-3.38 1.14-5.148 4.459-2.693 6.5a3.67 6.218 80.133 0 0 .08.084 3.67 6.218 80.133 0 0 7.932.592 3.67 6.218 80.133 0 0 3.17-4.977l-.403-.37a3.984 3.984 0 0 0-.373-.34l-.346-.317a3.67 6.218 80.133 0 0-.498-.248c-1.418-.788-3.396-1.267-5.117-1.211zM78.328 19.91c-.635.02-1.235.114-1.754.29-3.391 1.143-5.161 4.48-2.672 6.519a3.67 6.218 80.133 0 0 .059.062 3.67 6.218 80.133 0 0 7.934.592 3.67 6.218 80.133 0 0 3.17-4.975l-.407-.37a3.973 3.973 0 0 0-.367-.339l-.35-.318a3.67 6.218 80.133 0 0-.504-.25c-1.418-.786-3.39-1.266-5.109-1.21zM17.822 35.531c-.635.02-1.232.114-1.752.29-3.407 1.148-5.184 4.511-2.644 6.548a3.67 6.218 80.133 0 0 .031.033 3.67 6.218 80.133 0 0 7.932.592 3.67 6.218 80.133 0 0 3.17-4.974l-.407-.372a3.973 3.973 0 0 0-.367-.337l-.35-.319a3.67 6.218 80.133 0 0-.497-.248c-1.42-.787-3.395-1.268-5.116-1.213zm39.465 15.983c-.635.02-1.235.112-1.754.287-3.382 1.14-5.15 4.46-2.691 6.502a3.67 6.218 80.133 0 0 .078.082 3.67 6.218 80.133 0 0 7.934.592A3.67 6.218 80.133 0 0 64.024 54l-.415-.379a3.991 3.991 0 0 0-.35-.32l-.359-.328a3.67 6.218 80.133 0 0-.498-.246c-1.418-.788-3.394-1.269-5.115-1.213z"/></g></svg>
